X: 443
T: Xiangqinqin xiangzai xinyanshang
%%abc-version 2.0
%%abcx-abcm2ps-target-version 5.9.1 (29 Sep 2008)
%%abc-creator hum2abc beta
%%abcx-conversion-date 2013/10/02 07:52:30
%%abc-edited-by Helmut Schaffrath
%%humdrum-veritas 433112647
%%humdrum-veritas-data 3788015280
%%continueall 1
%%barnumbers 0
L: 1/16
M: 2/4
K: Ab
f> f f c f'2 c' f' [I:setbarnb 1]| 
f> f e c B A2 B | 
c2 b2 a b c' e' | 
f2> c2f4 | 
f> f f c f'2 c' f' | 
f> f e c B A2 B | 
c2 b2 a2 b c' | 
f8 |]  



